packages/ffe-icons/icons/filled/md/doorbell_chime.svg

<svg xmlns="http://www.w3.org/2000/svg" height="24" viewBox="0 -960 960 960" width="24"><path d="M480-277.692q-17.769 0-30.039-12.269-12.269-12.27-12.269-30.039 0-17.769 12.269-30.039 12.27-12.269 30.039-12.269 17.769 0 30.039 12.269 12.269 12.27 12.269 30.039 0 17.769-12.269 30.039-12.27 12.269-30.039 12.269Zm.057 187.691q-78.826 0-134.441-55.575Q290.001-201.15 290.001-280v-400q0-78.85 55.558-134.424 55.558-55.575 134.384-55.575t134.441 55.575Q669.999-758.85 669.999-680v400q0 78.85-55.558 134.424-55.558 55.575-134.384 55.575ZM480-242.308q32.048 0 54.87-22.822 22.822-22.822 22.822-54.87t-22.822-54.87q-22.822-22.822-54.87-22.822t-54.87 22.822q-22.822 22.822-22.822 54.87t22.822 54.87q22.822 22.822 54.87 22.822Zm0-320q32.048 0 54.87-22.822 22.822-22.822 22.822-54.87t-22.822-54.87q-22.822-22.822-54.87-22.822t-54.87 22.822q-22.822 22.822-22.822 54.87t22.822 54.87q22.822 22.822 54.87 22.822Zm267.017 192.307q-12.786 0-21.593-8.643-8.808-8.643-8.808-21.42 0-6.013 2.266-11.638 2.265-5.625 6.042-9.374 12.154-12.154 18.615-26.984 6.462-14.829 6.462-31.94t-6.462-31.94q-6.461-14.83-18.615-26.984-3.777-4.512-6.042-9.777-2.266-5.265-2.266-11.282 0-12.786 8.735-21.593 8.736-8.808 21.649-8.808 6.077 0 11.702 2.715 5.625 2.714 9.374 6.593 20.496 20.599 31.21 46.349 10.713 25.75 10.713 54.777t-10.713 54.741q-10.714 25.714-31.21 46.285-3.76 3.718-9.401 6.321-5.641 2.602-11.658 2.602Zm107 80q-12.786 0-21.401-8.643t-8.615-21.42q0-6.013 2.602-11.638 2.603-5.625 6.321-9.374 27.481-27.361 42.279-63.667 14.798-36.306 14.798-75.243t-14.77-75.168q-14.769-36.231-41.923-63.77-3.718-3.76-6.32-9.401-2.603-5.641-2.603-11.658 0-12.786 8.515-21.401 8.514-8.615 21.1-8.615 6.022 0 11.667 2.602 5.646 2.603 9.409 6.321 36.462 36.461 55.693 82.922 19.23 46.462 19.23 98.154 0 51.692-19.23 98.154-19.231 46.461-55.693 82.922-3.76 3.718-9.401 6.321-5.641 2.602-11.658 2.602Z"/></svg>

<svg xmlns="http://www.w3.org/2000/svg" height="24" viewBox="0 -960 960 960" width="24"><path d="M480-277.69q-17.77 0-30.04-12.27T437.69-320q0-17.77 12.27-30.04T480-362.31q17.77 0 30.04 12.27T522.31-320q0 17.77-12.27 30.04T480-277.69ZM480.06-90q-78.83 0-134.44-55.58Q290-201.15 290-280v-400q0-78.85 55.56-134.42Q401.12-870 479.94-870q78.83 0 134.44 55.58Q670-758.85 670-680v400q0 78.85-55.56 134.42Q558.88-90 480.06-90ZM480-242.31q32.05 0 54.87-22.82T557.69-320q0-32.05-22.82-54.87T480-397.69q-32.05 0-54.87 22.82T402.31-320q0 32.05 22.82 54.87T480-242.31Zm0-320q32.05 0 54.87-22.82T557.69-640q0-32.05-22.82-54.87T480-717.69q-32.05 0-54.87 22.82T402.31-640q0 32.05 22.82 54.87T480-562.31ZM747.02-370q-12.79 0-21.6-8.64-8.8-8.65-8.8-21.42 0-6.02 2.26-11.64 2.27-5.63 6.04-9.38 12.16-12.15 18.62-26.98Q750-462.89 750-480t-6.46-31.94q-6.46-14.83-18.62-26.98-3.77-4.52-6.04-9.78-2.26-5.27-2.26-11.28 0-12.79 8.73-21.6 8.74-8.8 21.65-8.8 6.08 0 11.7 2.71 5.63 2.72 9.38 6.59 20.49 20.6 31.21 46.35Q810-508.98 810-479.95t-10.71 54.74q-10.72 25.72-31.21 46.29-3.76 3.71-9.41 6.32-5.64 2.6-11.65 2.6Zm107 80q-12.79 0-21.4-8.64-8.62-8.65-8.62-21.42 0-6.02 2.6-11.64 2.61-5.63 6.32-9.38 27.49-27.36 42.28-63.66 14.8-36.31 14.8-75.25 0-38.93-14.77-75.16-14.77-36.24-41.92-63.77-3.72-3.76-6.32-9.41-2.6-5.64-2.6-11.65 0-12.79 8.51-21.4Q841.41-670 854-670q6.02 0 11.67 2.6 5.64 2.61 9.41 6.32 36.46 36.47 55.69 82.93Q950-531.69 950-480q0 51.69-19.23 98.15-19.23 46.46-55.69 82.93-3.76 3.71-9.41 6.32-5.64 2.6-11.65 2.6Z"/></svg>
